X:275
T: DER BESTE FREUND IST IN DEM HIMMEL
N: B0752
O: Europa, Mitteleuropa, Deutschland, Schlesien
R: Moral - Lied, religioes
M: 3/4
L: 1/8
K: F
F2 | c4c2 | c2B2A2 | c2B2A2 | G2F2
C2 | B2A2G2 | A4A2 | c2B2A2 | G4
F2 | c4c2 | c2B2A2 | c2B2A2 | G2F2
C2 | B2A2G2 | A4A2 | c2B2A2 | G4
G2 | G4G2 | A4A2 | B2A2B2 | c4
c2 | f2e2d2 | c3dcB | A4G2 | F4

